src/assets/logo/logoC.svg

<svg width="current" height="current" viewBox="0 0 174 42" fill="none" xmlns="http://www.w3.org/2000/svg">
<rect x="10" y="32" width="164" height="5" rx="2.5" fill="#FFB5B5"/>
<circle cx="9.977" cy="31.7731" r="3.22675" fill="#132743"/>
<ellipse cx="10.043" cy="10.584" rx="7.87801" ry="7.09622" fill="white"/>
<path d="M10.0265 0.0620117C4.47973 0.0620117 0.00219727 4.53954 0.00219727 10.0863C0.00219727 16.7692 10.014 26.7783 10.014 26.7783C10.014 26.7783 20.0508 16.7692 20.0508 10.0863C20.0508 4.53954 15.5733 0.0620117 10.0265 0.0620117ZM10.0265 3.40345C13.7355 3.40345 16.7094 6.41075 16.7094 10.0863C16.7094 13.7953 13.7355 16.7692 10.0265 16.7692C6.35093 16.7692 3.34364 13.7953 3.34364 10.0863C3.34364 6.41075 6.35093 3.40345 10.0265 3.40345Z" fill="#FFB5B5"/>
<path d="M20.1023 10.0141C20.1023 15.5447 13.4633 23.2549 10.0141 26.7783C22.9316 -11.9548 1.56351 17.8648 0 10.0141C0 4.48345 4.50005 0 10.0511 0C15.6022 0 20.1023 4.48345 20.1023 10.0141Z" fill="#132743"/>
<path d="M34.1932 34L27.625 10.7273H32.1591L36.3523 27.8295H36.5682L41.0455 10.7273H45.1705L49.6591 27.8409H49.8636L54.0568 10.7273H58.5909L52.0227 34H47.8636L43.2045 17.6705H43.0227L38.3523 34H34.1932ZM65.446 23.7727V34H61.3324V10.7273H65.3551V19.5114H65.5597C65.9688 18.5265 66.6013 17.75 67.4574 17.1818C68.321 16.6061 69.4195 16.3182 70.7528 16.3182C71.965 16.3182 73.0218 16.572 73.9233 17.0795C74.8248 17.5871 75.5218 18.3295 76.0142 19.3068C76.5142 20.2841 76.7642 21.4773 76.7642 22.8864V34H72.6506V23.5227C72.6506 22.3485 72.3475 21.4356 71.7415 20.7841C71.143 20.125 70.3021 19.7955 69.2188 19.7955C68.4915 19.7955 67.84 19.9545 67.2642 20.2727C66.696 20.5833 66.2491 21.0341 65.9233 21.625C65.6051 22.2159 65.446 22.9318 65.446 23.7727ZM88.6847 34.3409C86.9347 34.3409 85.4233 33.9773 84.1506 33.25C82.8854 32.5152 81.9119 31.4773 81.2301 30.1364C80.5483 28.7879 80.2074 27.2008 80.2074 25.375C80.2074 23.5795 80.5483 22.0038 81.2301 20.6477C81.9195 19.2841 82.8816 18.2235 84.1165 17.4659C85.3513 16.7008 86.8021 16.3182 88.4688 16.3182C89.5445 16.3182 90.5597 16.4924 91.5142 16.8409C92.4763 17.1818 93.3248 17.7121 94.0597 18.4318C94.8021 19.1515 95.3854 20.0682 95.8097 21.1818C96.2339 22.2879 96.446 23.6061 96.446 25.1364V26.3977H82.1392V23.625H92.5028C92.4953 22.8371 92.3248 22.1364 91.9915 21.5227C91.6581 20.9015 91.1922 20.4129 90.5938 20.0568C90.0028 19.7008 89.3134 19.5227 88.5256 19.5227C87.6847 19.5227 86.946 19.7273 86.3097 20.1364C85.6733 20.5379 85.1771 21.0682 84.821 21.7273C84.4725 22.3788 84.2945 23.0947 84.2869 23.875V26.2955C84.2869 27.3106 84.4725 28.1818 84.8438 28.9091C85.215 29.6288 85.7339 30.1818 86.4006 30.5682C87.0672 30.947 87.8475 31.1364 88.7415 31.1364C89.34 31.1364 89.8816 31.053 90.3665 30.8864C90.8513 30.7121 91.2718 30.4583 91.6278 30.125C91.9839 29.7917 92.2528 29.3788 92.4347 28.8864L96.2756 29.3182C96.0331 30.3333 95.571 31.2197 94.8892 31.9773C94.215 32.7273 93.3513 33.3106 92.2983 33.7273C91.2453 34.1364 90.0407 34.3409 88.6847 34.3409ZM99.9261 34V16.5455H103.915V19.4545H104.097C104.415 18.447 104.96 17.6705 105.733 17.125C106.513 16.572 107.403 16.2955 108.403 16.2955C108.631 16.2955 108.884 16.3068 109.165 16.3295C109.453 16.3447 109.691 16.3712 109.881 16.4091V20.1932C109.706 20.1326 109.43 20.0795 109.051 20.0341C108.68 19.9811 108.32 19.9545 107.972 19.9545C107.222 19.9545 106.547 20.1174 105.949 20.4432C105.358 20.7614 104.892 21.2045 104.551 21.7727C104.21 22.3409 104.04 22.9962 104.04 23.7386V34H99.9261ZM119.622 34.3409C117.872 34.3409 116.361 33.9773 115.088 33.25C113.823 32.5152 112.849 31.4773 112.168 30.1364C111.486 28.7879 111.145 27.2008 111.145 25.375C111.145 23.5795 111.486 22.0038 112.168 20.6477C112.857 19.2841 113.819 18.2235 115.054 17.4659C116.289 16.7008 117.74 16.3182 119.406 16.3182C120.482 16.3182 121.497 16.4924 122.452 16.8409C123.414 17.1818 124.262 17.7121 124.997 18.4318C125.74 19.1515 126.323 20.0682 126.747 21.1818C127.171 22.2879 127.384 23.6061 127.384 25.1364V26.3977H113.077V23.625H123.44C123.433 22.8371 123.262 22.1364 122.929 21.5227C122.596 20.9015 122.13 20.4129 121.531 20.0568C120.94 19.7008 120.251 19.5227 119.463 19.5227C118.622 19.5227 117.884 19.7273 117.247 20.1364C116.611 20.5379 116.115 21.0682 115.759 21.7273C115.41 22.3788 115.232 23.0947 115.224 23.875V26.2955C115.224 27.3106 115.41 28.1818 115.781 28.9091C116.152 29.6288 116.671 30.1818 117.338 30.5682C118.005 30.947 118.785 31.1364 119.679 31.1364C120.277 31.1364 120.819 31.053 121.304 30.8864C121.789 30.7121 122.209 30.4583 122.565 30.125C122.921 29.7917 123.19 29.3788 123.372 28.8864L127.213 29.3182C126.971 30.3333 126.509 31.2197 125.827 31.9773C125.152 32.7273 124.289 33.3106 123.236 33.7273C122.183 34.1364 120.978 34.3409 119.622 34.3409ZM130.398 29.6818V26.3295L140.273 10.7273H143.068V15.5H141.364L134.716 26.0341V26.2159H148.5V29.6818H130.398ZM141.5 34V28.6591L141.545 27.1591V10.7273H145.523V34H141.5ZM152.131 34V30.9545L160.21 23.0341C160.983 22.2538 161.627 21.5606 162.142 20.9545C162.657 20.3485 163.044 19.7614 163.301 19.1932C163.559 18.625 163.688 18.0189 163.688 17.375C163.688 16.6402 163.521 16.0114 163.188 15.4886C162.854 14.9583 162.396 14.5492 161.812 14.2614C161.229 13.9735 160.566 13.8295 159.824 13.8295C159.059 13.8295 158.388 13.9886 157.812 14.3068C157.237 14.6174 156.79 15.0606 156.472 15.6364C156.161 16.2121 156.006 16.8977 156.006 17.6932H151.994C151.994 16.2159 152.331 14.9318 153.006 13.8409C153.68 12.75 154.608 11.9053 155.79 11.3068C156.979 10.7083 158.343 10.4091 159.881 10.4091C161.441 10.4091 162.813 10.7008 163.994 11.2841C165.176 11.8674 166.093 12.6667 166.744 13.6818C167.403 14.697 167.733 15.8561 167.733 17.1591C167.733 18.0303 167.566 18.8864 167.233 19.7273C166.9 20.5682 166.313 21.5 165.472 22.5227C164.638 23.5455 163.468 24.7841 161.96 26.2386L157.949 30.3182V30.4773H168.085V34H152.131Z" fill="#132743"/>
</svg>

<svg xmlns="http://www.w3.org/2000/svg" width="current" height="current" fill="none" viewBox="0 0 174 42"><rect width="164" height="5" x="10" y="32" fill="#FFB5B5" rx="2.5"/><circle cx="9.977" cy="31.773" r="3.227" fill="#132743"/><ellipse cx="10.043" cy="10.584" fill="#fff" rx="7.878" ry="7.096"/><path fill="#FFB5B5" d="M10.027.062A10.01 10.01 0 0 0 .002 10.086c0 6.683 10.012 16.692 10.012 16.692S20.051 16.77 20.051 10.086A10.01 10.01 0 0 0 10.027.062m0 3.341a6.68 6.68 0 0 1 6.682 6.683 6.66 6.66 0 0 1-6.682 6.683 6.68 6.68 0 0 1-6.683-6.683c0-3.675 3.007-6.683 6.683-6.683"/><path fill="#132743" d="M20.102 10.014c0 5.53-6.639 13.24-10.088 16.764C22.932-11.955 1.564 17.865 0 10.014 0 4.484 4.5 0 10.051 0s10.051 4.483 10.051 10.014M34.193 34l-6.568-23.273h4.534l4.193 17.103h.216l4.477-17.103h4.125l4.49 17.114h.204l4.193-17.114h4.534L52.023 34h-4.16l-4.658-16.33h-.182L38.353 34zm31.253-10.227V34h-4.114V10.727h4.023v8.784h.205q.613-1.477 1.897-2.33 1.296-.863 3.296-.863 1.818 0 3.17.761 1.353.761 2.091 2.228.75 1.465.75 3.58V34h-4.113V23.523q0-1.761-.91-2.739-.897-.988-2.522-.988-1.09 0-1.955.477a3.34 3.34 0 0 0-1.34 1.352q-.478.886-.478 2.148M88.685 34.34q-2.626 0-4.534-1.091-1.9-1.102-2.92-3.114-1.024-2.022-1.024-4.761 0-2.693 1.023-4.727 1.035-2.046 2.886-3.182 1.853-1.148 4.353-1.148a8.8 8.8 0 0 1 3.045.523q1.442.51 2.546 1.59 1.113 1.08 1.75 2.75.636 1.66.636 3.955v1.262H82.139v-2.773h10.364q-.012-1.182-.511-2.102a3.7 3.7 0 0 0-1.398-1.466q-.886-.534-2.068-.534-1.262 0-2.216.613a4.2 4.2 0 0 0-1.489 1.591 4.6 4.6 0 0 0-.534 2.148v2.42q0 1.524.557 2.614.556 1.08 1.557 1.66 1 .567 2.34.567.898 0 1.626-.25a3.6 3.6 0 0 0 1.26-.761q.535-.5.808-1.239l3.84.432a6 6 0 0 1-1.386 2.66q-1.011 1.125-2.59 1.75-1.58.612-3.614.613M99.926 34V16.546h3.989v2.909h.182q.477-1.511 1.636-2.33 1.17-.83 2.67-.83.341 0 .762.034.431.024.716.08v3.784q-.262-.09-.83-.159a8 8 0 0 0-1.079-.08q-1.126 0-2.023.49a3.6 3.6 0 0 0-1.398 1.329q-.511.852-.511 1.966V34zm19.696.34q-2.625 0-4.534-1.09-1.898-1.102-2.92-3.114-1.023-2.022-1.023-4.761 0-2.693 1.023-4.727 1.034-2.046 2.886-3.182 1.853-1.148 4.352-1.148 1.614 0 3.046.523 1.443.51 2.545 1.59 1.114 1.08 1.75 2.75.636 1.66.637 3.955v1.262h-14.307v-2.773h10.363q-.011-1.182-.511-2.102a3.7 3.7 0 0 0-1.398-1.466q-.886-.534-2.068-.534-1.261 0-2.216.613a4.23 4.23 0 0 0-1.488 1.591 4.6 4.6 0 0 0-.535 2.148v2.42q0 1.524.557 2.614a3.97 3.97 0 0 0 1.557 1.66q1 .567 2.341.567.897 0 1.625-.25a3.6 3.6 0 0 0 1.261-.761q.534-.5.807-1.239l3.841.432a6 6 0 0 1-1.386 2.66q-1.012 1.125-2.591 1.75-1.58.612-3.614.613m10.776-4.658V26.33l9.875-15.603h2.795V15.5h-1.704l-6.648 10.534v.182H148.5v3.466zM141.5 34v-5.34l.045-1.5V10.726h3.978V34zm10.631 0v-3.046l8.079-7.92a38 38 0 0 0 1.932-2.08q.773-.909 1.159-1.76a4.35 4.35 0 0 0 .387-1.819q0-1.103-.5-1.886a3.33 3.33 0 0 0-1.376-1.228q-.875-.43-1.988-.431-1.148 0-2.012.477a3.3 3.3 0 0 0-1.34 1.33q-.466.862-.466 2.056h-4.012q0-2.215 1.012-3.852 1.011-1.637 2.784-2.534 1.784-.898 4.091-.898 2.34 0 4.113.875t2.75 2.398q.989 1.522.989 3.477 0 1.306-.5 2.568t-1.761 2.796q-1.25 1.534-3.512 3.716l-4.011 4.08v.158h10.136V34z"/></svg>
